svgs/sharp-solid/trees.svg

<svg xmlns="http://www.w3.org/2000/svg" viewBox="0 0 640 512"><!--! Font Awesome Pro 6.6.0 by @fontawesome - https://fontawesome.com License - https://fontawesome.com/license (Commercial License) Copyright 2024 Fonticons, Inc. --><path d="M64 128L192 0 320 128l0 32-48 0 80 96 0 32-48 0 80 96 0 32-160 0 0 64 0 32-64 0 0-32 0-64L0 416l0-32 80-96-48 0 0-32 80-96-48 0 0-32zM416 480l0-32 0-32 0-32 0-11.6-7.4-8.9L372.3 320l11.7 0 0-32 0-32 0-11.6-7.4-8.9L340.3 192l11.7 0 0-32 0-32 0-13.3-9.4-9.4L448 0 576 128l0 32-48 0 80 96 0 32-48 0 80 96 0 32-160 0 0 64 0 32-64 0 0-32z"/></svg>

<svg xmlns="http://www.w3.org/2000/svg" viewBox="0 0 640 512"><!--! Font Awesome Pro 6.4.0 by @fontawesome - https://fontawesome.com License - https://fontawesome.com/license (Commercial License) Copyright 2023 Fonticons, Inc. --><path d="M64 128L192 0 320 128v32H272l80 96v32H304l80 96v32H224v64 32H160V480 416H0V384l80-96H32V256l80-96H64V128zM416 480V448 416 384 372.4l-7.4-8.9L372.3 320H384V288 256 244.4l-7.4-8.9L340.3 192H352V160 128 114.7l-9.4-9.4L448 0 576 128v32H528l80 96v32H560l80 96v32H480v64 32H416V480z"/></svg>
